T: Cocktail, The
M: 4/4
L: 1/8
K: Dmaj
|: DFFE F3 E | DF F2 AFEF | DFFE F2 ed | cAAG EFGE :|
| A2-A2-A2 GE | A2 GA BGEG | A2-A2-A2 ed | =cBcG EFGE |
A2-A2-A2 GE | A2 GA BGEG | A2 a2 a2 zg | fdec dBAF | |
